X:255
T: Belzer Nigun
O:klezmer
Z: 1998 by John Chambers <jc@trillian.mit.edu>
M: 2/4
L: 1/8
K: Gm
|: "Gm"B>A GG | GG GG | "Cm"Gc "D7"cB/A/ | "Gm"B2 B2 | "Bb"d>c BB | BB BB | "Cm"Gc "D7"cB/A/ | "Gm"G2 G2 :|
|: "Cm"dc dc | "Gm"cB/A/ B2 | "Cm"BA Gc | "Gm"cB/A/ B2 | "Cm"dc dc | "Gm"cB/A/ B2 |1 "Cm"B/A/G "F7"ee | "Bb"d4 :|2 "Eb"B/A/G "F"AF | "Gm"G4 |]





